X:567
T: MARIANDEL IST SO SCHOEN
N: F1122
O: Europa, Mitteleuropa, Deutschland
R: Liebes - Lied
M: 2/4
L: 1/8
K: C
G, | G,G,A,B, | C2z
G, | G,A,B,C | ^C2D
D | D^CDE | FED
C | B,G,A,B, | C2z
C | CB,A,G, | ^F,G,A,
F, | G,A,B,C | ^C2D
D | CB,A,G, | ^F,G,A,
F, | G,B,A,D | G,2z
G, | G,G,A,B, | C2z
G, | G,A,B,C | ^C2D
D | D^CDE | FED
C | B,G,A,B, | C2z
G | GB,B,B, | C2z
G | GB,B,B, | C2z

